X: 20592
T: DORR'S RETURN
C:
%R: jig
B: Elias Howe "The Musician's Companion" 1843 p.59 #2
S: http://imslp.org/wiki/The_Musician's_Companion_(Howe,_Elias)
Z: 2015 John Chambers <jc:trillian.mit.edu>
M: 6/8
L: 1/8
K: G
% - - - - - - - - - - - - - - - - - - - - - - - - -
G, |\
G,B,D GBd | gfe dBG | AGA BAG | EDD D2A, |\
G,B,D GBd | gfe dBG | AGA BAB | E2F G2 :|
|: d |\
g2d g2d | gab g2d | e2d e2d | fga f2d |\
g2d g2d | gab g2d | gfe dBd | b2a g2 :|
% - - - - - - - - - - - - - - - - - - - - - - - - -
